X:1
T:Crosby, 76.87
T:Crosby, 76.87
T:John David Brunk, 1911
T:Public Domain Courtesy of the Cyber Hymnal™
C:John David Brunk, 1911
Z:Public Domain
Z:Courtesy of the Cyber Hymnal™
%%score ( 1 2 ) 3
L:1/8
Q:1/4=130
M:3/4
K:Eb
V:1 treble 
V:2 treble 
V:3 bass 
V:1
 [EG]2 _G2 [E=G]2 | [Ec]4 [EB]2 | ([DB]4 [DA]2) | [EG]6 | [CF]4 [CF]2 | [EF]4 [EF]2 | %6
 [Ec]4 ([Ed]2 | [DB]6) | [EG]2 _G2 [E=G]2 | [Ec]4 [EB]2 | ([DB]2 c2) [Fd]2 | [Ee]6 | %12
 [Ee]2 d2 [Ec]2 | [EB]2 z2 [DA]2 | ([EG]4 [DF]2) | [B,E]6 |] %16
V:2
 x2 _G2 x2 | x6 | x6 | x6 | x6 | x6 | x6 | x6 | x2 _G2 x2 | x6 | x2 c2 x2 | x6 | x2 d2 x2 | x6 | %14
 x6 | x6 |] %16
V:3
 [E,B,]2 [_G,=A,]2 [E,B,]2 | [E,A,]4 [E,G,]2 | ([B,,F,]4 [B,,B,]2) | [E,B,]6 | [F,A,]4 [F,A,]2 | %5
 [F,=A,]4 [F,A,]2 | [F,=A,]4 ([F,A,]2 | [B,,B,]6) | [E,B,]2 [_G,,=A,]2 [E,B,]2 | [E,A,]4 [G,B,]2 | %10
 [F,A,]4 [B,,A,]2 | [C,G,]6 | [A,,C]2 [D,D]2 [A,,A,]2 | [B,,G,]2 [E,B,]2 [B,,F,]2 | %14
 ([B,,B,]4 [B,,A,]2) | [E,G,]6 |] %16

